X:1
T:La Primavera / Spring
T:Spring
T:(from the Four Seasons)
T:Antonio Vivaldi (1678-1741)
T:Studio de Vliet
T:Studio de Vliet
T:Studio de Vliet
T:Studio de Vliet
T:Studio de Vliet
T:Studio de Vliet
T:Studio de Vliet
T:Studio de Vliet
T:Studio de Vliet
C:Antonio Vivaldi (1678-1741
Z:Studio de Vliet
%%score 1 2 3
L:1/8
M:4/4
K:Bb
V:1 treble nm="Flute" snm="Fl."
V:2 treble transpose=-2 nm="B♭ Clarinet" snm="B♭ Cl."
V:3 bass nm="Bassoon" snm="Bsn."
V:1
 z[Q:1/4=105]"^allegro\n"!f! B | dd dc/B/ f3 f/e/ | dd dc/B/ f3 f/e/ | de/f/ ed cAF!p!B | %4
 dd dc/B/ f3 f/e/ | dd dc/B/ f3 f/e/ | de/f/ ed c2 z B | fe/d/ ef g f2!f! B | fe/d/ ef g f2 B | %9
 g f2 e dc/B/ Tc2 | B2 z!p! B fe/d/ ef | g f2 B fe/d/ ef | g f2 B g f2 e | dc/B/ Tc2"^B" Mf2 Mf2 | %14
 Mf2 Mf2 Mf2 Mf2 | ffff ffff | ffff ff fg/a/ | b/a/g/f/ e/d/c/B/ z4 | z8 | z2 z (b b)bbb | %20
 TB3 (b bbbb) | TB2 z2 f2- (f/b/)(f/g/) | f2- f/b/f/g/ f/b/f/g/ f/b/f/g/ | %23
 f/b/f/g/ f/b/f/g/ fB Td2 | z2 Td2 z2 Td2 | z2 Td2 .b2- .b2 | Tb4 .b2- .b2 | Tb4 z2 z!f! B | %28
 fe/d/ ef g f2 B | fe/d/ ef g f2 B | g f2 e dc/B/ Tc2 |"^C"!p! BD/E/ F/E/F/E/ D/E/D/E/ F/E/F/E/ | %32
 D/E/D/E/ F/E/F/E/ D/E/D/E/ F/G/F/G/ | A/B/A/B/ c/B/c/B/ A/B/A/B/ c/B/c/B/ | %34
 A/B/A/B/ c/d/c/d/ e/d/e/d/ c/e/d/c/ | dc/B/ A/G/F/E/ D/E/D/E/ F/E/F/E/ | %36
 D/E/D/E/ F/E/F/E/ D/E/D/E/ F/E/F/E/ | D2 z d e4 | d4 c4 | d4 e4 | d4 c2 z!f! F | cB/A/ Bc d c2 F | %42
 cB/A/ Bc d c2 F | d c2 B AG/F/ TG2 |"^D\n""^*Rapid Fire*" FF/F/ F/F/F/F/ F/F/F/F/ F/F/F/F/ | %45
 F/4G/4A/4B/4c/4d/4e/4f/4 z2 F/4G/4A/4B/4c/4d/4e/4f/4 z2 | %46
"^*Rapid Fire*" FF/F/ F/F/F/F/ F/F/F/F/ F/F/F/F/ | %47
 (3f/d/f/(3b/f/b/ (3f/d/f/(3b/f/b/ (3f/d/f/(3a/f/a/ (3f/d/f/(3a/f/a/ | %48
 g2 z2 (3g/=e/g/(3c'/g/c'/ (3g/e/g/(3c'/g/c'/ | (3g/=e/g/(3b/g/b/ (3g/e/g/(3b/g/b/ a2 z2 | %50
 (3a/^f/a/(3d'/a/d'/ (3a/f/a/(3d'/a/d'/ (3a/f/a/(3c'/a/c'/ (3a/f/a/(3c'/a/c'/ | %51
 b2 z2 (3b/g/b/(3d'/b/d'/ (3b/g/b/(3d'/b/d'/ | %52
 (3a/f/a/(3d'/a/d'/ (3a/f/a/(3d'/a/d'/ (3g/e/g/(3c'/g/c'/ (3g/e/g/(3c'/g/c'/ | %53
 (3f/d/f/(3b/f/b/ (3f/d/f/(3b/f/b/ (3f/d/f/(3a/f/a/ (3f/d/f/(3a/f/a/ | %54
 (3d/B/d/(3g/d/g/ (3d/B/d/(3g/d/g/ (3d/B/d/(3g/d/g/ (3d/A/d/(3g/d/g/ | %55
 (3d/A/d/(3^f/d/f/ (3d/A/d/(3f/d/f/ g2 z G | dc/B/ cd e d2!f! G | dc/B/ cd e d2 G | %58
 e d2 c BA/G/ TA2 |"^E"!p! (.G.d).d.d .d.d.d.d | (.e.e).=ee f.f^f.f | Tg8- | g8 | %63
 (g/a/)(g/a/) g2 (g/a/)(g/a/) g2- | g/a/(g/a/) g/a/(g/a/) Tg4- | %65
 (g/4a/4)(g/4a/4)(g/4a/4)(g/4a/4) (g/4a/4)(g/4a/4)(g/4a/4)(g/4a/4)!<(! Tg4!<)! | dd dc/d/ e3 e/d/ | %67
 cc cB/c/ d3 d/e/ | ff ff/e/ dd dd/e/ |!f! ff ff/e/ dd dd/e/ | ff fe/d/ (c/F/)(G/F/) (A/G/)(B/A/) | %71
 (c/B/)(d/c/) (e/d/)(f/e/) (F/E/)(G/F/) (A/G/)(B/A/) | %72
 (c/B/)(d/c/) (e/d/)(f/e/) (d/B/)(c/B/) (d/B/)(c/B/) | %73
 (e/B/)(c/B/) (e/B/)(c/B/) (f/B/)(c/B/) (f/B/)(c/B/) | (ga) b2 (b/f/)(b/f/) (g/f/)(b/f/) | %75
 (g/f/)(b/f/) (g/f/)(b/f/) d'B Tc2 | fe/d/ ef g f2 B | fe/d/ ef g f2 B | g f2 e dc/B/ c2 | %79
 B2 z B fe/d/ ef | g f2 B fe/d/ ef | g f2 B g f2 e | dc/B/ Tc2 B4 |] %83
V:2
[K:C] z!f! G | cccc e3 e/c/ | cccc e3 e/c/ | cd/e/ dc B2 z!p! G | cccc e3 e/c/ | cccc e3 e/c/ | %6
 cd/e/ dc B2 z e | ed/c/ de f e2!f! c | ed/c/ de f e2 e | f e2 d cB/A/ TB2 | G2 z!p! A ed/c/ de | %11
 f e2 G ed/c/ de | f e2 G f e2 d | cB/A/ TB2 c2 z2 | z/ f/e/f/ Te2 z/ f/e/f/ Te2 | %15
 z g/4f/4e/4d/4 c2 z g/4f/4e/4d/4 c2 | z/ f/e/f/ Te2 z/ f/e/f/ Te2 | z4 z g/4f/4e/4d/4 c2 | %18
 z g/4f/4e/4d/4 c2 z g/4f/4e/4d/4 c2 | c'/b/a/g/ f/e/d/c/ z2 z (c | c)ccc Tc3 c | (cccc) Tc2 Te2 | %22
 z2 Te2 z2 Te2 | z2 Te2 G2- (G/c/)(G/A/) | G2- G/c/G/A/ G/c/G/A/ G/c/G/A/ | %25
 G/c/G/A/ G/c/G/A/ Gc z2 | (c2 c2) Tc4 | (c2 c2) Tc2 z!f! c |!f! ed/c/ de f e2 e | %29
 ed/c/ de f e2 e | f e2 d c2 B2 |!p! cC/D/ E/D/E/D/ C/D/C/D/ E/D/E/D/ | %32
 C/D/C/D/ E/D/E/D/ C/D/C/D/ E/F/E/F/ | G/A/G/A/ B/A/B/A/ G/A/G/A/ B/A/B/A/ | %34
 G/A/G/A/ B/c/B/c/ d/c/d/c/ B/d/c/B/ | cB/A/ G/F/E/D/ C/D/C/D/ E/D/E/D/ | %36
 C/D/C/D/ E/D/E/D/ C/D/C/D/ E/D/E/D/ | C2 z c d4 | c4 B4 | c4 d4 | c4 B2 z!f! B | BA/G/ AB c B2 B | %42
 BA/G/ AB c B2 B | c B2 A G2 T_G2 | %44
"^*Machine Gun*" G,G,/G,/ G,/G,/G,/G,/ G,/G,/G,/G,/ G,/G,/G,/G,/ | %45
 G,/4A,/4B,/4C/4D/4E/4F/4G/4 z2 G,/4A,/4B,/4C/4D/4E/4F/4G/4 z2 | %46
"^*Rapid Fire*" G,G,/G,/ G,/G,/G,/G,/ G,/G,/G,/G,/ G,/G,/G,/G,/ | z8 | %48
"^*Machine Gun*" F,F,/F,/ F,/F,/F,/F,/ ^F,2 z2 | z4 G,/G,/G,/G,/ G,/G,/G,/G,/ | ^G,2 z2 z4 | %51
 A,/A,/A,/A,/ A,/A,/A,/A,/ A,2 z2 | G,/G,/G,/G,/ G,/G,/G,/G,/ F,2 z2 | E/E/E/E/ E/E/E/E/ D2 z2 | %54
 C/C/C/C/ A,/A,/A,/A,/ E,/E,/E,/E,/ E,/E,/E,/E,/ | E,/E,/E,/E,/ E,/E,/E,/E,/ A,2 z A, | %56
 cB/A/ Bc d c2!f! c | cB/A/ Bc d c2 c | d c2 B A2 _A2 |!p! A2 z2 z4 | z8 | z (.A.A).A .A.A.AB | %62
 (c.c)^c.c d.d^d.d | e2- (e/f/)(e/f/) e2- (e/f/)(e/f/) | Te4- (e/f/)(e/f/) (e/f/)(e/f/) | %65
 Te4-!<(! (e/4f/4)(e/4f/4)(e/4f/4)(e/4f/4) (e/4f/4)(e/4f/4)(e/4f/4)(e/4f/4)!<)! | %66
 ee ed/e/ f3 f/e/ | dd dc/d/ e3 e/f/ | gg gg/f/ ee ee/f/ |!f! gg gg/f/ ee ee/f/ | gg gf/e/ d2 z2 | %71
 z2 z2 (B/A/)(c/B/) (d/c/)(e/d/) | (F/E/)(G/F/) (A/G/)(B/A/) (c/B/)(d/c/) (e/d/)(f/e/) | %73
 (c/A/)(B/A/) (c/A/)(B/A/) (d/A/)(B/A/) (d/A/)(B/A/) | (g/c/)(d/c/) (g/c/)(d/c/) z4 | z8 | %76
 z2 z2 f e2 z | ed/c/ de f e2 e | f e2 d c2 B2 | c2 z e ed/c/ de | f e2 G ed/c/ de | %81
 f e2 e f e2 d | c2 TB2 c4 |] %83
V:3
 z!f! B,, | B,,2 B,,2 B,,2 B,,2 | B,,2 B,,2 B,,2 B,,2 | B,,B,,E,,=E,, F,,2 z!p! B,, | %4
 B,,2 B,,2 B,,2 B,,2 | B,,2 B,,2 B,,2 B,,2 | B,,B,,E,,=E,, F,,2 z B,, | B,,2 B,,2 B,,2!f! B,,2 | %8
 z8 | B,,2 B,,F,, B,,B,,F,F,, | B,,2 z!p! B,, B,,2 B,,2 | B,,2 B,,2 B,,2 B,,2 | %12
 B,,2 B,,2 B,,2 B,,2 | B,,B,,F,F,, B,,2 z2 | z8 | z4 F2 F2 | F2 F2 F2 F2 | FFFF FFFF | %18
 FFFF FF FG/A/ | z4 (D>E) (D>E) | (D>E) (D>E) (D/E/)(D/E/) (D/E/)(D/E/) | %21
 (D/4E/4)(D/4E/4)(D/4E/4)(D/4E/4) (D/4E/4)(D/4E/4)(D/4E/4)(D/4E/4) TD2 z2 | TD2 z2 TD2 z2 | %23
 TD2 z2 TD2 z2 | TD2 z2 TD2 z2 | TD2 z2 B,2- (B,/F/)(B,/C/) | %26
 B,2- (B,/F/)(B,/C/) (B,/F/)(B,/C/) B,/F/B,/C/ | B,/F/B,/C/ B,/F/B,/C/ B,2 z2 | %28
 B,,2 B,,2 B,,2 B,,2 | B,,2 B,,2 B,,2 B,,2 | B,,2 B,,F,, B,,B,,F,F,, | %31
!p! B,,B,,B,,B,, B,,B,,B,,B,, | B,,B,,B,,B,, B,,B,,B,,B,, | F,,F,,F,,F,, F,,F,,F,,F,, | %34
 F,,F,,F,,F,, F,,F,,F,,F,, | B,,B,,B,,B,, B,,B,,B,,B,, | B,,B,,B,,B,, B,,B,,B,,B,, | %37
 B,,/F,,/B,,/F,,/ B,,/F,,/B,,/F,,/ A,,/F,,/A,,/F,,/ A,,/F,,/A,,/F,,/ | %38
 B,,/F,,/B,,/F,,/ B,,/F,,/B,,/F,,/ C,/F,,/C,/F,,/ C,/F,,/C,/F,,/ | %39
 B,,/F,,/B,,/F,,/ B,,/F,,/B,,/F,,/ A,,/F,,/A,,/F,,/ A,,/F,,/A,,/F,,/ | %40
 B,,/F,,/B,,/F,,/ B,,/F,,/B,,/F,,/ F,,2 z!f! F,, | F,,2 F,,2 F,,2 F,,2 | F,,2 F,,2 F,,2 F,,2 | %43
 F,,2 F,,C, F,F,,C,C,, |"^*M249*" F,,F,,/F,,/ F,,/F,,/F,,/F,,/ F,,/F,,/F,,/F,,/ F,,/F,,/F,,/F,,/ | %45
 F,,/4G,,/4A,,/4B,,/4C,/4D,/4E,/4F,/4 z2 F,,/4G,,/4A,,/4B,,/4C,/4D,/4E,/4F,/4 z2 | %46
"^*Rapid Fire*" F,,F,,/F,,/ F,,/F,,/F,,/F,,/ F,,/F,,/F,,/F,,/ F,,/F,,/F,,/F,,/ | z8 | %48
"^*Machine Gun*" E,,E,,/E,,/ E,,/E,,/E,,/E,,/ =E,,2 z2 | z4 F,,/F,,/F,,/F,,/ F,,/F,,/F,,/F,,/ | %50
 ^F,,2 z2 z4 | G,,/G,,/G,,/G,,/ G,,/G,,/G,,/G,,/ G,,2 z2 | %52
 F,,/F,,/F,,/F,,/ F,,/F,,/F,,/F,,/ E,,2 z2 | D,/D,/D,/D,/ D,/D,/D,/D,/ C,2 z2 | %54
 B,,/B,,/B,,/B,,/ G,,/G,,/G,,/G,,/ D,,/D,,/D,,/D,,/ D,,/D,,/D,,/D,,/ | %55
 D,,/D,,/D,,/D,,/ D,,/D,,/D,,/D,,/ G,,2 z G,, | G,,2 G,,2 G,,2!f! G,,2 | G,,2 G,,2 G,,2 G,,2 | %58
 G,,2 G,,D, G,G,,D,D,, |!p! G,,8- | G,,8- | G,,8- | G,,8- | G,,8- | G,,8- |!<(! G,,8!<)! | %66
 G,,G,,G,,G,, C,C,C,C, | F,,F,,F,,F,, B,,B,,B,,F,, | B,,B,,B,,F,, B,,B,,B,,F,, | %69
!f! B,,B,,B,,F,, B,,B,,B,,F,, | B,,B,,B,,F,, F,,4- | F,,8- | F,,4 B,,2 B,,2 | C,2 C,2 D,2 D,2 | %74
 E,2 D,C, B,,2 z2 | B,,2 z2 F,2 F,,2 | B,, z z2 z4 | z8 | B,,2 B,,F,, B,,B,,F,F,, | %79
 B,,2 z B,, B,,2 B,,2 | B,,2 B,,2 B,,2 B,,2 | B,,2 B,,2 B,,2 B,,F,, | B,,B,,F,F,, B,,4 |] %83

